resources/svg/recycle-line.svg

<svg fill="currentColor" viewBox="0 0 24 24" xmlns="http://www.w3.org/2000/svg"><path d="M19.5605 12.0975L21.092 14.7501C22.0585 16.4241 21.4849 18.5647 19.8109 19.5312C19.2788 19.8384 18.6753 20.0001 18.0609 20.0001L15.9985 19.9995L15.9987 22.5001L10.9987 19.0001L15.9987 15.5001L15.9985 17.9995L18.0609 18.0001C18.3242 18.0001 18.5829 17.9308 18.8109 17.7991C19.5283 17.3849 19.7742 16.4675 19.3599 15.7501L17.8285 13.0975L19.5605 12.0975ZM7.30257 9.13407L7.83366 15.2142L5.66848 13.9635L4.63751 15.7501C4.50586 15.9781 4.43655 16.2368 4.43655 16.5001C4.43655 17.3285 5.10812 18.0001 5.93655 18.0001L8.99948 18.0002V20.0001H5.93655C4.00355 20.0001 2.43655 18.4331 2.43655 16.5001C2.43655 15.8857 2.59827 15.2822 2.90546 14.7501L3.93648 12.9635L1.77148 11.7142L7.30257 9.13407ZM13.7487 2.96901C14.2808 3.2762 14.7226 3.71803 15.0298 4.2501L16.0605 6.03551L18.226 4.78599L17.6949 10.8661L12.1638 8.28599L14.3285 7.03551L13.2978 5.2501C13.1661 5.02207 12.9768 4.83271 12.7487 4.70106C12.0313 4.28684 11.1139 4.53266 10.6997 5.2501L9.16818 7.90261L7.43615 6.90266L8.96764 4.2501C9.93414 2.57607 12.0747 2.00251 13.7487 2.96901Z"/></svg>

<svg xmlns="http://www.w3.org/2000/svg" viewBox="0 0 24 24" fill="currentColor">
    <g>
        <path fill="none" d="M0 0H24V24H0z"/>
        <path d="M19.562 12.097l1.531 2.653c.967 1.674.393 3.815-1.28 4.781-.533.307-1.136.469-1.75.469H16v2.5L11 19l5-3.5V18h2.062c.263 0 .522-.07.75-.201.718-.414.963-1.332.55-2.049l-1.532-2.653 1.732-1zM7.304 9.134l.53 6.08-2.164-1.25-1.031 1.786c-.132.228-.201.487-.201.75 0 .828.671 1.5 1.5 1.5H9v2H5.938c-1.933 0-3.5-1.567-3.5-3.5 0-.614.162-1.218.469-1.75l1.03-1.787-2.164-1.249 5.53-2.58zm6.446-6.165c.532.307.974.749 1.281 1.281l1.03 1.785 2.166-1.25-.53 6.081-5.532-2.58 2.165-1.25-1.031-1.786c-.132-.228-.321-.417-.549-.549-.717-.414-1.635-.168-2.049.549L9.169 7.903l-1.732-1L8.97 4.25c.966-1.674 3.107-2.248 4.781-1.281z"/>
    </g>
</svg>
